Sources/FrostedUI/Resources/Icons.xcassets/rotate20.imageset/rotate-20.svg

<svg width="20" height="20" viewBox="0 0 20 20" fill="none" xmlns="http://www.w3.org/2000/svg" data-fui-icon="true">
  <path
    d="M8.18994 11C8.60381 11.0004 8.93994 11.336 8.93994 11.75C8.93994 12.164 8.60381 12.4996 8.18994 12.5H4.80322C5.43425 14.2745 7.08896 16.25 10.2563 16.25C13.5248 16.2498 15.6155 14.2918 16.271 11.5742C16.3681 11.1717 16.7737 10.9235 17.1763 11.0205C17.5786 11.1178 17.8269 11.5233 17.73 11.9258C16.9237 15.2688 14.2662 17.7498 10.2563 17.75C7.00425 17.75 4.9925 16.0409 3.93994 14.2021V16.79C3.93992 17.204 3.60381 17.5396 3.18994 17.54C2.77574 17.54 2.43996 17.2042 2.43994 16.79V12.5596C2.44017 11.7091 3.12433 11 3.98975 11H8.18994ZM9.93311 2.25C13.1853 2.25 15.197 3.95904 16.2495 5.79785V3.20996C16.2495 2.79595 16.5856 2.46025 16.9995 2.45996C17.4137 2.45996 17.7495 2.79577 17.7495 3.20996V7.44043C17.7493 8.29095 17.0651 9 16.1997 9H11.9995C11.5856 8.9997 11.2495 8.66403 11.2495 8.25C11.2495 7.83597 11.5856 7.5003 11.9995 7.5H15.3862C14.7552 5.72548 13.1005 3.75 9.93311 3.75C6.66456 3.75011 4.57393 5.70814 3.91846 8.42578C3.82134 8.82834 3.41576 9.07646 3.01318 8.97949C2.61073 8.88229 2.3625 8.47674 2.45947 8.07422C3.26573 4.7311 5.9231 2.25012 9.93311 2.25Z"
    fill="currentColor"
  />
</svg>

<svg xmlns="http://www.w3.org/2000/svg" width="20" height="20" fill="none" data-fui-icon="true" viewBox="0 0 20 20"><path fill="currentColor" d="M8.19 11a.75.75 0 0 1 0 1.5H4.803c.631 1.774 2.286 3.75 5.453 3.75 3.269 0 5.36-1.958 6.015-4.676a.75.75 0 0 1 1.459.352c-.806 3.343-3.464 5.824-7.474 5.824-3.252 0-5.264-1.71-6.316-3.548v2.588a.75.75 0 0 1-1.5 0v-4.23c0-.85.684-1.56 1.55-1.56zm1.743-8.75c3.252 0 5.264 1.709 6.317 3.548V3.21a.75.75 0 0 1 1.5 0v4.23c0 .851-.685 1.56-1.55 1.56H12a.75.75 0 0 1 0-1.5h3.386c-.63-1.775-2.285-3.75-5.453-3.75-3.268 0-5.36 1.958-6.015 4.676a.75.75 0 0 1-1.459-.352C3.266 4.731 5.923 2.25 9.933 2.25"/></svg>
